X: 24
T: Connaughtman's Rambles, The
Z: jdogbishop96
S: https://thesession.org/tunes/19#setting48116
R: jig
M: 6/8
L: 1/8
K: Dmaj
|:"D"FAA dAA|BAA dAG|FAA def|"G"edB BAG|
"D"FAA dAA|BAB def|"G"gfe dfe|1 dBA BAG:|2 dBA B2d||
|:"Bm"fbb "A"faa|"G"fef ded|"Bm"fbb "A"faa|"Bm"fed "A"e2g|
"Bm"fbb "A"faa|"G"fef def|gfe dfe|1 dBB B2g:|2 "A"dBB BAG||

